X: 1
T: Stick Chucking - Ascott-under-Wychwood
T: Young Collins
M: 2/2
L: 1/8 
R: Rag Morris
K: G
C: Trad 
Z: ABC  by Mackin
W: Music formula for morris dance: A.(AB)4
W: When playing for dancing, be considerate of flying sticks.
r: 24
P: A
: D2 |: "G" GABc d2 d2 | "C" c2 dc "G" B2 B2 | "D" c2  Ac "G" BA G2 | "D" A2 F2 "G" G4 :|
P: B 
|:"C" E2 E2 E2 DE| "G" F2 F2 F4 | G2 G2 GABc| d2 z2 D4 | 
"G" GABc d2 d2 | "C" c2 dc "G" B2 B2 |"D" c2 Ac "G" BA G2 | "D" A2 F2 "G" G4 :|
